assets/icons/folder.svg

<svg width="24" height="24" viewBox="0 0 24 24" fill="none" xmlns="http://www.w3.org/2000/svg">
<path d="M7.30566 14.5738H16.8987" stroke="#C6CEDD" stroke-width="1.5" stroke-linecap="round" stroke-linejoin="round"/>
<path fill-rule="evenodd" clip-rule="evenodd" d="M6.122 2.77265C8.493 2.28503 10.295 2.4536 11.792 3.26122C13.29 4.06884 12.861 5.26122 14.4 6.13646C15.94 7.01265 18.417 5.69646 20.035 7.44217C21.729 9.26979 21.72 12.0755 21.72 13.8641C21.72 20.6603 17.913 21.1993 12.11 21.1993C6.307 21.1993 2.5 20.7288 2.5 13.8641V7.79836C2.5 5.35646 3.75 3.25932 6.122 2.77265Z" stroke="#C6CEDD" stroke-width="1.5" stroke-linecap="round" stroke-linejoin="round"/>
</svg>

<svg width="24" height="24" fill="none" xmlns="http://www.w3.org/2000/svg"><path d="M7.306 14.574h9.593" stroke="#C6CEDD" stroke-width="1.5" stroke-linecap="round" stroke-linejoin="round"/><path clip-rule="evenodd" d="M6.122 2.773c2.371-.488 4.173-.32 5.67.488 1.498.808 1.069 2 2.608 2.875 1.54.877 4.017-.44 5.635 1.306 1.694 1.828 1.685 4.633 1.685 6.422 0 6.796-3.807 7.335-9.61 7.335-5.803 0-9.61-.47-9.61-7.335V7.798c0-2.442 1.25-4.539 3.622-5.025z" stroke="#C6CEDD" stroke-width="1.5" stroke-linecap="round" stroke-linejoin="round"/></svg>
